images/web-browsers/internet-explorer.svg

<?xml version="1.0" encoding="UTF-8" standalone="no"?>
<svg width="256px" height="252px" viewBox="0 0 256 252" version="1.1" xmlns="http://www.w3.org/2000/svg" xmlns:xlink="http://www.w3.org/1999/xlink" preserveAspectRatio="xMidYMid">
    <g>
        <path d="M256,131.592659 C256,111.354947 250.767631,92.3421368 241.5922,75.8208743 C280.701983,-12.6928751 199.685538,0.27175991 195.174751,1.15435696 C178.010624,4.51299652 162.131033,9.90518739 147.483501,16.7405437 C145.323523,16.6188884 143.150426,16.5520973 140.960631,16.5520973 C86.2956713,16.5520973 40.5377853,54.6802897 28.8266767,105.793393 C57.6386994,73.4700651 77.8024638,60.4279047 89.8773456,55.2086552 C87.9499445,56.9309121 86.0630951,58.6722522 84.2072559,60.426712 C83.589438,61.0099417 82.9942813,61.6015203 82.3848123,62.188328 C81.1611034,63.3655217 79.9397799,64.543908 78.7470812,65.7330286 C78.0374255,66.4402989 77.3468529,67.1535328 76.6479315,67.8655739 C75.5900077,68.9425808 74.5344694,70.0183951 73.5015923,71.1013655 C72.7680826,71.8706562 72.0524634,72.6423322 71.3320733,73.4128156 C70.3671801,74.4456927 69.4082503,75.4797625 68.467211,76.5174103 C67.7360867,77.3236747 67.0168894,78.129939 66.2988848,78.9385887 C65.4067461,79.942841 64.5229564,80.9470934 63.6510936,81.9537311 C62.9283182,82.7886202 62.2115063,83.6235093 61.5030433,84.4595911 C60.6765031,85.4352186 59.8606971,86.4108461 59.0532401,87.3864737 C58.3388136,88.2499876 57.6267725,89.1123087 56.927851,89.9746299 C56.17168,90.9073203 55.4322068,91.838818 54.6939263,92.769123 C53.9783071,93.6708032 53.2626879,94.5712907 52.5637664,95.4717782 C51.8982406,96.3293286 51.2517979,97.1833009 50.6005844,98.0384659 C49.865882,99.0045518 49.1252161,99.9706378 48.4095968,100.931953 C47.8979291,101.62014 47.4065372,102.301171 46.9044111,102.986973 C42.3590363,109.189006 38.2060594,115.27177 34.4550219,121.114801 C34.4454803,121.129113 34.4359387,121.143425 34.4275898,121.157738 C33.4400353,122.696319 32.487069,124.212239 31.553186,125.715039 C31.5030926,125.796143 31.4506139,125.878439 31.4005205,125.960735 C30.4654447,127.469499 29.5625718,128.952024 28.6823602,130.419043 C28.65135,130.470329 28.6191471,130.522808 28.588137,130.574094 C26.2218227,134.523119 24.0272571,138.330214 22.0509553,141.911888 C11.6899816,160.688544 6.6460588,173.807037 6.42779493,174.585869 C-26.2903161,291.556217 75.8237767,242.1606 90.0729482,234.787336 C105.415824,242.366937 122.688487,246.63322 140.960631,246.63322 C190.982415,246.63322 233.541483,214.703483 249.382908,170.114442 L188.936937,170.114442 C179.992889,185.224742 162.773898,195.459289 142.991797,195.459289 C114.008026,195.459289 90.513054,173.499321 90.513054,146.409555 L255.052997,146.409555 C255.676779,141.557656 256,136.612728 256,131.592659 L256,131.592659 Z M234.509955,18.3864679 C244.41651,25.0727369 252.362269,35.5732563 238.716603,70.9355804 C225.62912,49.8880262 205.938857,33.377498 182.535723,24.3022535 C193.181752,19.1605294 219.546357,8.28550254 234.509955,18.3864679 L234.509955,18.3864679 Z M23.9795491,234.552375 C15.9109424,226.277431 14.4844747,206.123208 32.2890811,169.39763 C41.2748731,195.232676 59.2059055,216.880158 82.3824269,230.618854 C70.8561865,236.962819 40.2563084,251.246579 23.9795491,234.552375 L23.9795491,234.552375 Z M90.2590092,114.950934 C91.1785799,88.6221096 114.092707,67.5411599 142.246361,67.5411599 C170.398821,67.5411599 193.314141,88.6221096 194.233712,114.950934 L90.2590092,114.950934 L90.2590092,114.950934 Z" fill="#1EBBEE"></path>
    </g>
</svg>

<svg width="256" height="252" viewBox="0 0 256 252" xmlns="http://www.w3.org/2000/svg" preserveAspectRatio="xMidYMid"><path d="M256 131.593c0-20.238-5.232-39.251-14.408-55.772 39.11-88.514-41.907-75.549-46.417-74.667-17.164 3.359-33.044 8.751-47.691 15.586-2.16-.122-4.333-.188-6.523-.188-54.665 0-100.423 38.128-112.134 89.241 28.812-32.323 48.976-45.365 61.051-50.585-1.927 1.722-3.814 3.464-5.67 5.218-.618.583-1.213 1.175-1.822 1.762-1.224 1.177-2.445 2.356-3.638 3.545-.71.707-1.4 1.421-2.099 2.133-1.058 1.077-2.113 2.153-3.146 3.236-.734.769-1.449 1.541-2.17 2.311-.965 1.033-1.924 2.067-2.865 3.105-.731.806-1.45 1.613-2.168 2.421-.892 1.004-1.776 2.009-2.648 3.015-.723.835-1.44 1.67-2.148 2.506-.827.976-1.642 1.951-2.45 2.927-.714.864-1.426 1.726-2.125 2.588-.756.933-1.496 1.864-2.234 2.794-.716.902-1.431 1.802-2.13 2.703-.666.858-1.312 1.712-1.963 2.567-.735.966-1.475 1.932-2.191 2.893-.512.688-1.003 1.369-1.505 2.055-4.545 6.202-8.698 12.285-12.449 18.128l-.027.043c-.988 1.539-1.941 3.055-2.874 4.557l-.153.246c-.935 1.509-1.838 2.991-2.718 4.458l-.094.155c-2.366 3.949-4.561 7.756-6.537 11.338-10.361 18.777-15.405 31.895-15.623 32.674-32.718 116.97 69.396 67.575 83.645 60.201 15.343 7.58 32.616 11.846 50.888 11.846 50.022 0 92.581-31.93 108.422-76.519h-60.446c-8.944 15.11-26.163 25.345-45.945 25.345-28.984 0-52.479-21.96-52.479-49.05h164.54c.624-4.852.947-9.797.947-14.817zm-21.49-113.206c9.907 6.686 17.852 17.187 4.207 52.549-13.087-21.048-32.778-37.558-56.181-46.633 10.646-5.142 37.011-16.017 51.974-5.916zm-210.53 216.166c-8.069-8.275-9.495-28.429 8.31-65.155 8.986 25.835 26.917 47.483 50.093 61.221-11.526 6.344-42.126 20.628-58.403 3.934zm66.279-119.601c.92-26.329 23.834-47.41 51.987-47.41 28.152 0 51.068 21.081 51.987 47.41h-103.975z" fill="#1EBBEE"/></svg>
